X: 25110
T: Mairead Of The Mourne Mountains
R: reel
M: 4/4
K: Dmajor
AG|:F2 AF dFAF|~B3 A Bcde|fede fef(a|{b}ag)ec AGG([AG]|
F2) AF dFAF|G(B{d}BA) Bcd(f|{a}fe)df gec(e|1 {a}ed)dc dBAG:|2 {a}eddc d2 DE||
=F z ({FG}FE F)GA(d|{e}d=c)d(e =fe)df|e (~=c3 G) (~c3|e)(=c=f)c dcde|
d(A{d}AG) =FEFG|A(d{e}de =fe)df|e ~=c3 G=FG(A|{d}AG)=FE FDDE:|

